X:0460
T:The Queen's or 2d. Regt. Quick Step.
M:2/4
L:1/8
Q:1/4=84
I: :: :: ::
Z:Jack Campin * www.campin.me.uk * 2009
K:D
(a>f)(a>f)|.d.d(de)|efge |fdd2   |\
(a>f)(a>f)|.d.d(df)|e>gec|d2d2  ::
 c>def    | g2  e2 |d>efg|a2f2   |\
 e>fga    | bgfe   |fdec |d2d2  ::
(a>b).a.a |(ba)(gf)|edef |dAF[DA]|\
(ab).a.a  | bagf   |edce |d2d2  :|

